COLOR/action 16/16/tools-check-spelling.svg

<svg height="16" width="16" xmlns="http://www.w3.org/2000/svg"><path d="m595.98187 115.64093-2.20387 2.20388c-.19326.19326-.29615.46328-.28165.70962.0145.24635.12521.45808.28165.61453.15645.15645.36818.26717.61453.28165.24634.0145.51636-.0884.70962-.28165l1.21076-1.21076 1.5418 1.5418h.66208l1.54179-1.5418 1.54179 1.5418h.66209l1.54179-1.5418 1.54179 1.5418h.66209l2.20386-2.20388c.19327-.19326.29616-.46328.28166-.70962-.0145-.24635-.12521-.45808-.28166-.61453-.15644-.15644-.36818-.26717-.61452-.28165-.24634-.0145-.51636.0884-.70963.28165l-1.21075 1.21076-1.5418-1.5418h-.66208l-1.54179 1.5418-1.5418-1.5418h-.66208l-1.54179 1.5418-1.54179-1.5418z" fill="#c43ac4" transform="translate(-592.995 -105)"/><text style="font-family:sans-serif;font-size:22.150846;letter-spacing:0;word-spacing:0;fill:#1a7fd4;stroke-width:.553771" x=".381862" y="9.846421"><tspan fill="#1a7fd4" font-family="Ubuntu" font-size="11.813786" font-weight="bold" stroke-width=".553771" x=".381862" y="9.846421">Ab</tspan></text><path d="m4.601227 3.0139768c-.039379.1181378-.098974.2796027-.177734.4843751-.078759.2047721-.169099.4412052-.271484.7089843-.102387.2677792-.217737.5618555-.34375.8847657-.118138.3229101-.239221.6612114-.365235 1.015625h.179688c.06176-.171981.125564-.3516739.185547-.515625.126013-.3229102.241363-.6169865.34375-.8847657.102386-.2677791.192725-.5042121.271484-.7089843.078758-.2047723.138355-.3662372.177734-.484375.047255.1181378.108742.2796026.1875.484375.078759.2047722.169098.4412052.271485.7089843.110262.2677792.225612.5618555.34375.8847657.059981.1639511.123786.343644.185547.515625h.179687c-.126014-.3544136-.247097-.6927149-.365234-1.015625-.118138-.3229102-.233488-.6169865-.34375-.8847657-.102387-.2677791-.192725-.5042121-.271485-.7089843-.078758-.2047724-.14025-.3662373-.1875-.4843751zm7.851563 1.4765625c-.181145-.0000004-.361824.023058-.542969.070313-.173269.047255-.315519.1068513-.425781.1777343v.5c.110262-.070883.252512-.1304793.425781-.1777343.181145-.047255.361824-.070313.542969-.070313.783882 0 1.184607.5196369 1.232422 1.5195313.01017-.1023179.01953-.2070712.01953-.3183594 0-1.1341234-.417112-1.7011719-1.251953-1.7011719zm3.03125 1.9707032c-.01984.4055246-.080886.7844454-.207031 1.1230468-.141766.4016688-.351299.7457661-.626954 1.0292969-.275655.2835309-.613956.5026391-1.015625.6601563-.401668.1496414-.859163.2246092-1.371093.2246094-.212649 0-.4356-.011528-.671875-.035156-.2284-.015751-.457147-.03881-.685547-.070312-.220524-.031503-.4339-.068043-.638672-.1074219-.204772-.047255-.385452-.09337-.542969-.140625v.5c.157517.047255.338197.09337.542969.140625.204772.039379.418148.075919.638672.1074219.2284.031503.457147.054561.685547.070312.236275.023628.459226.035156.671875.035156.51193-.0000001.969425-.074968 1.371093-.2246094.401669-.1575172.73997-.3766254 1.015625-.6601563.275655-.2835308.485187-.6276281.626954-1.0292969.14964-.4016687.224609-.8495241.224609-1.3457031 0-.097107-.01287-.1839063-.01758-.2773437zm-12.466797 1.1113281c-.102386.2992826-.208098.5991549-.31836.8984375-.102385.2992826-.196573.5914691-.283203.875h-1.736328c-.06138.1746739-.11496.3197244-.177734.5h1.914062c.086635-.2835309.180817-.5757174.283203-.875.110262-.2992826.215974-.5991549.31836-.8984375h3.189453l.306641.8984375c.110262.2992826.21024.5914691.296875.875h1.972656c-.062837-.1804532-.118118-.3251595-.179688-.5h-1.792968c-.086635-.2835309-.186613-.5757174-.296875-.875l-.306641-.8984375zm12.43164 3.8164064c-.04513.148345-.115224.291012-.230468.40625l-2.205078 2.203125h-.66211l-1.541015-1.541016-1.541016 1.541016h-.662109l-1.542969-1.541016-1.541016 1.541016h-.662109l-1.542969-1.541016-1.208984 1.210938c-.19326.19325-.464598.29575-.710938.28125-.24635-.01448-.456831-.1248-.613281-.28125-.110454-.110462-.184873-.255552-.232422-.414063-.030061.09917-.056557.200709-.050781.298828.0145.24635.126763.458785.283203.615235.15645.15645.366931.26677.613281.28125.24634.0145.517678-.088.710938-.28125l1.208984-1.210938 1.542969 1.541016h.662109l1.541016-1.541016 1.542969 1.541016h.662109l1.541016-1.541016 1.541015 1.541016h.66211l2.205078-2.203125c.19327-.19326.29575-.462645.28125-.708985-.0042-.07109-.03183-.132351-.05078-.197265z" opacity=".2"/><path d="m11.48404.6780393-1.759766.2832032v.5l1.759766-.2832032zm-7.722657.9804688c-.275654.5670617-.542831 1.1494817-.802734 1.7480469-.252027.5906893-.511518 1.2173342-.779297 1.8789062-.259903.661572-.529032 1.367028-.804687 2.1152344s-.565889 1.5632165-.873047 2.4453125h.177734c.238958-.6800129.475994-1.3500184.695313-1.9453125.275655-.7482064.544784-1.4536624.804687-2.1152344.267779-.661572.52727-1.2882169.779297-1.8789062.259903-.5985652.527081-1.1809852.802734-1.7480469h1.759766c.267779.5670617.533066 1.1494817.792969 1.7480469.259903.5906893.519393 1.2173342.779297 1.8789062.267779.661572.538798 1.367028.814453 2.1152344.219263.5951434.455915 1.2654932.695312 1.9453125h.179688c-.307159-.882096-.599345-1.6971061-.875-2.4453125s-.546674-1.4536624-.814453-2.1152344c-.259904-.661572-.519394-1.2882169-.779297-1.8789062-.259903-.5985652-.52519-1.1809852-.792969-1.7480469zm9.021485 1.84375c-.244152 0-.470946.023057-.683594.070312s-.418338.1145374-.615234.2011719v.5c.196896-.086634.402586-.1539169.615234-.2011719s.439442-.070312.683594-.070312c.441048 0 .83126.078811 1.169922.2363281.338662.1496413.623162.3649067.851562.6484375.2284.2835309.401394.6256751.519531 1.0273438.09464.3154807.1412.6704617.160157 1.046875.0037-.075532.01758-.1447497.01758-.2226563 0-.4883031-.0596-.9304259-.177735-1.3242187-.118138-.4016687-.291133-.7438129-.519533-1.0273438-.2284-.2835308-.5129-.4987962-.851562-.6484375-.338662-.1575171-.728874-.2363281-1.169922-.2363281zm-9.160156 3.1054688c-.05988.1667442-.117655.3255328-.179688.5h2.326172c-.062033-.1744672-.119808-.3332558-.179687-.5zm10.0625.4003906c-.03947.3974658-.151496.73102-.345703.9941406-.244152.330786-.607464.4960938-1.087891.4960938-.157517 0-.303611-.00384-.4375-.011719-.13389-.015752-.243444-.031123-.330078-.046875v.5c.08663.015752.196188.031123.330078.046875.133889.00788.279983.011719.4375.011719.480427 0 .843739-.1653078 1.087891-.4960938.244151-.330786.365234-.7671127.365234-1.3105469 0-.069963-.01636-.1179471-.01953-.1835937zm-10.697266 3.6328125-2.203125 2.203125c-.19326.19326-.297703.462644-.283203.708984.004262.07241.030985.135179.050781.201172.045518-.149255.11653-.294264.232422-.410156l2.203125-2.203125h.662109l1.541016 1.541016 1.542969-1.541016h.662109l1.541016 1.541016 1.541015-1.541016h.66211l1.542969 1.541016 1.210937-1.210938c.19327-.19325.462644-.29575.708984-.28125.24634.01448.458795.12481.615235.28125.1113.1113.183758.257947.230468.417969.03056-.100438.05664-.203283.05078-.302735-.0145-.24635-.1248-.458784-.28125-.615234-.15644-.15644-.368895-.26677-.615235-.28125-.24634-.0145-.515714.088-.708984.28125l-1.210935 1.210938-1.542969-1.541016h-.66211l-1.541015 1.541016-1.541016-1.541016h-.662109l-1.542969 1.541016-1.541016-1.541016z" fill="#fff" opacity=".3"/></svg>

<?xml version="1.0" encoding="UTF-8" standalone="no"?>
<svg
   xmlns:dc="http://purl.org/dc/elements/1.1/"
   xmlns:cc="http://creativecommons.org/ns#"
   xmlns:rdf="http://www.w3.org/1999/02/22-rdf-syntax-ns#"
   xmlns:svg="http://www.w3.org/2000/svg"
   xmlns="http://www.w3.org/2000/svg"
   xmlns:sodipodi="http://sodipodi.sourceforge.net/DTD/sodipodi-0.dtd"
   xmlns:inkscape="http://www.inkscape.org/namespaces/inkscape"
   height="16"
   width="16"
   version="1.1"
   id="svg16"
   sodipodi:docname="tools-check-spelling.svg"
   inkscape:version="0.92.4 (5da689c313, 2019-01-14)">
  <metadata
     id="metadata22">
    <rdf:RDF>
      <cc:Work
         rdf:about="">
        <dc:format>image/svg+xml</dc:format>
        <dc:type
           rdf:resource="http://purl.org/dc/dcmitype/StillImage" />
      </cc:Work>
    </rdf:RDF>
  </metadata>
  <defs
     id="defs20" />
  <sodipodi:namedview
     pagecolor="#ffffff"
     bordercolor="#666666"
     borderopacity="1"
     objecttolerance="10"
     gridtolerance="10"
     guidetolerance="10"
     inkscape:pageopacity="0"
     inkscape:pageshadow="2"
     inkscape:window-width="1920"
     inkscape:window-height="1016"
     id="namedview18"
     showgrid="false"
     inkscape:zoom="14.75"
     inkscape:cx="-14.20339"
     inkscape:cy="8"
     inkscape:window-x="0"
     inkscape:window-y="27"
     inkscape:window-maximized="1"
     inkscape:current-layer="svg16" />
  <path
     d="m595.98187 115.64093-2.20387 2.20388c-.19326.19326-.29615.46328-.28165.70962.0145.24635.12521.45808.28165.61453.15645.15645.36818.26717.61453.28165.24634.0145.51636-.0884.70962-.28165l1.21076-1.21076 1.5418 1.5418h.66208l1.54179-1.5418 1.54179 1.5418h.66209l1.54179-1.5418 1.54179 1.5418h.66209l2.20386-2.20388c.19327-.19326.29616-.46328.28166-.70962-.0145-.24635-.12521-.45808-.28166-.61453-.15644-.15644-.36818-.26717-.61452-.28165-.24634-.0145-.51636.0884-.70963.28165l-1.21075 1.21076-1.5418-1.5418h-.66208l-1.54179 1.5418-1.5418-1.5418h-.66208l-1.54179 1.5418-1.54179-1.5418z"
     id="path2"
     fill="#c43ac4"
     transform="translate(-592.995 -105)" />
  <g
     stroke-width=".553771"
     id="g14">
    <text
       font-family="sans-serif"
       font-size="22.150846"
       letter-spacing="0"
       word-spacing="0"
       x=".381862"
       y="9.846421"
       id="text6"
       style="fill:#1a7fd4;fill-opacity:1;">
      <tspan
         font-family="Ubuntu"
         font-size="11.813786"
         font-weight="bold"
         stroke-width=".553771"
         x=".381862"
         y="9.846421"
         id="tspan4"
         style="fill:#1a7fd4;fill-opacity:1;">Ab</tspan>
    </text>
  </g>
  <path
     style="fill:#000000;fill-opacity:1;opacity:0.2"
     d="M 4.601227,3.0139768 C 4.561848,3.1321146 4.502253,3.2935795 4.423493,3.4983519 4.344734,3.703124 4.254394,3.9395571 4.152009,4.2073362 4.049622,4.4751154 3.934272,4.7691917 3.808259,5.0921019 3.690121,5.415012 3.569038,5.7533133 3.443024,6.1077269 H 3.622712 C 3.684472,5.9357459 3.748276,5.756053 3.808259,5.5921019 3.934272,5.2691917 4.049622,4.9751154 4.152009,4.7073362 4.254395,4.4395571 4.344734,4.2031241 4.423493,3.9983519 4.502251,3.7935796 4.561848,3.6321147 4.601227,3.5139769 c 0.047255,0.1181378 0.108742,0.2796026 0.1875,0.484375 0.078759,0.2047722 0.169098,0.4412052 0.271485,0.7089843 0.110262,0.2677792 0.225612,0.5618555 0.34375,0.8847657 0.059981,0.1639511 0.123786,0.343644 0.185547,0.515625 H 5.769196 C 5.643182,5.7533133 5.522099,5.415012 5.403962,5.0921019 5.285824,4.7691917 5.170474,4.4751154 5.060212,4.2073362 4.957825,3.9395571 4.867487,3.7031241 4.788727,3.4983519 4.709969,3.2935795 4.648477,3.1321146 4.601227,3.0139768 Z m 7.851563,1.4765625 c -0.181145,-4e-7 -0.361824,0.023058 -0.542969,0.070313 -0.173269,0.047255 -0.315519,0.1068513 -0.425781,0.1777343 v 0.5 c 0.110262,-0.070883 0.252512,-0.1304793 0.425781,-0.1777343 0.181145,-0.047255 0.361824,-0.070313 0.542969,-0.070313 0.783882,0 1.184607,0.5196369 1.232422,1.5195313 0.01017,-0.1023179 0.01953,-0.2070712 0.01953,-0.3183594 0,-1.1341234 -0.417112,-1.7011719 -1.251953,-1.7011719 z m 3.03125,1.9707032 C 15.4642,6.8667671 15.403154,7.2456879 15.277009,7.5842893 15.135243,7.9859581 14.92571,8.3300554 14.650055,8.6135862 14.3744,8.8971171 14.036099,9.1162253 13.63443,9.2737425 c -0.401668,0.1496414 -0.859163,0.2246092 -1.371093,0.2246094 -0.212649,0 -0.4356,-0.011528 -0.671875,-0.035156 -0.2284,-0.015751 -0.457147,-0.03881 -0.685547,-0.070312 -0.220524,-0.031503 -0.4339,-0.068043 -0.638672,-0.1074219 -0.204772,-0.047255 -0.385452,-0.09337 -0.542969,-0.140625 v 0.5 c 0.157517,0.047255 0.338197,0.09337 0.542969,0.140625 0.204772,0.039379 0.418148,0.075919 0.638672,0.1074219 0.2284,0.031503 0.457147,0.054561 0.685547,0.070312 0.236275,0.023628 0.459226,0.035156 0.671875,0.035156 0.51193,-10e-8 0.969425,-0.074968 1.371093,-0.2246094 0.401669,-0.1575172 0.73997,-0.3766254 1.015625,-0.6601563 0.275655,-0.2835308 0.485187,-0.6276281 0.626954,-1.0292969 0.14964,-0.4016687 0.224609,-0.8495241 0.224609,-1.3457031 0,-0.097107 -0.01287,-0.1839063 -0.01758,-0.2773437 z M 3.017243,7.5725706 C 2.914857,7.8718532 2.809145,8.1717255 2.698883,8.4710081 2.596498,8.7702907 2.50231,9.0624772 2.41568,9.3460081 H 0.679352 c -0.06138,0.1746739 -0.11496,0.3197244 -0.177734,0.5 H 2.41568 C 2.502315,9.5624772 2.596497,9.2702907 2.698883,8.9710081 2.809145,8.6717255 2.914857,8.3718532 3.017243,8.0725706 h 3.189453 l 0.306641,0.8984375 c 0.110262,0.2992826 0.21024,0.5914691 0.296875,0.875 H 8.782868 C 8.720031,9.6655549 8.66475,9.5208486 8.60318,9.3460081 H 6.810212 C 6.723577,9.0624772 6.623599,8.7702907 6.513337,8.4710081 L 6.206696,7.5725706 Z m 12.43164,3.8164064 c -0.04513,0.148345 -0.115224,0.291012 -0.230468,0.40625 l -2.205078,2.203125 h -0.66211 L 10.810212,12.457336 9.269196,13.998352 H 8.607087 L 7.064118,12.457336 5.523102,13.998352 H 4.860993 L 3.318024,12.457336 2.10904,13.668274 c -0.19326,0.19325 -0.464598,0.29575 -0.710938,0.28125 -0.24635,-0.01448 -0.456831,-0.1248 -0.613281,-0.28125 -0.110454,-0.110462 -0.184873,-0.255552 -0.232422,-0.414063 -0.030061,0.09917 -0.056557,0.200709 -0.050781,0.298828 0.0145,0.24635 0.126763,0.458785 0.283203,0.615235 0.15645,0.15645 0.366931,0.26677 0.613281,0.28125 0.24634,0.0145 0.517678,-0.088 0.710938,-0.28125 l 1.208984,-1.210938 1.542969,1.541016 h 0.662109 l 1.541016,-1.541016 1.542969,1.541016 h 0.662109 l 1.541016,-1.541016 1.541015,1.541016 h 0.66211 l 2.205078,-2.203125 c 0.19327,-0.19326 0.29575,-0.462645 0.28125,-0.708985 -0.0042,-0.07109 -0.03183,-0.132351 -0.05078,-0.197265 z"
     id="path815"
     inkscape:connector-curvature="0" />
  <g
     id="g821"
     transform="translate(9.23e-4,-9.199e-4)"
     style="stroke-width:0.55377102" />
  <path
     style="fill:#ffffff;fill-opacity:1;opacity:0.3"
     d="M 11.48404,0.6780393 9.724274,0.9612425 v 0.5 L 11.48404,1.1780393 Z M 3.761383,1.6585081 C 3.485729,2.2255698 3.218552,2.8079898 2.958649,3.406555 2.706622,3.9972443 2.447131,4.6238892 2.179352,5.2854612 1.919449,5.9470332 1.65032,6.6524892 1.374665,7.4006956 1.09901,8.148902 0.808776,8.9639121 0.501618,9.8460081 H 0.679352 C 0.91831,9.1659952 1.155346,8.4959897 1.374665,7.9006956 1.65032,7.1524892 1.919449,6.4470332 2.179352,5.7854612 2.447131,5.1238892 2.706622,4.4972443 2.958649,3.906555 3.218552,3.3079898 3.48573,2.7255698 3.761383,2.1585081 H 5.521149 C 5.788928,2.7255698 6.054215,3.3079898 6.314118,3.906555 6.574021,4.4972443 6.833511,5.1238892 7.093415,5.7854612 7.361194,6.4470332 7.632213,7.1524892 7.907868,7.9006956 8.127131,8.495839 8.363783,9.1661888 8.60318,9.8460081 H 8.782868 C 8.475709,8.9639121 8.183523,8.148902 7.907868,7.4006956 7.632213,6.6524892 7.361194,5.9470332 7.093415,5.2854612 6.833511,4.6238892 6.574021,3.9972443 6.314118,3.406555 6.054215,2.8079898 5.788928,2.2255698 5.521149,1.6585081 Z m 9.021485,1.84375 c -0.244152,0 -0.470946,0.023057 -0.683594,0.070312 -0.212648,0.047255 -0.418338,0.1145374 -0.615234,0.2011719 v 0.5 c 0.196896,-0.086634 0.402586,-0.1539169 0.615234,-0.2011719 0.212648,-0.047255 0.439442,-0.070312 0.683594,-0.070312 0.441048,0 0.83126,0.078811 1.169922,0.2363281 0.338662,0.1496413 0.623162,0.3649067 0.851562,0.6484375 0.2284,0.2835309 0.401394,0.6256751 0.519531,1.0273438 0.09464,0.3154807 0.1412,0.6704617 0.160157,1.046875 0.0037,-0.075532 0.01758,-0.1447497 0.01758,-0.2226563 0,-0.4883031 -0.0596,-0.9304259 -0.177735,-1.3242187 C 15.205747,5.0126988 15.032752,4.6705546 14.804352,4.3870237 14.575952,4.1034929 14.291452,3.8882275 13.95279,3.7385862 13.614128,3.5810691 13.223916,3.5022581 12.782868,3.5022581 Z M 3.622712,6.6077269 c -0.05988,0.1667442 -0.117655,0.3255328 -0.179688,0.5 h 2.326172 c -0.062033,-0.1744672 -0.119808,-0.3332558 -0.179687,-0.5 z m 10.0625,0.4003906 c -0.03947,0.3974658 -0.151496,0.73102 -0.345703,0.9941406 -0.244152,0.330786 -0.607464,0.4960938 -1.087891,0.4960938 -0.157517,0 -0.303611,-0.00384 -0.4375,-0.011719 -0.13389,-0.015752 -0.243444,-0.031123 -0.330078,-0.046875 v 0.5 c 0.08663,0.015752 0.196188,0.031123 0.330078,0.046875 0.133889,0.00788 0.279983,0.011719 0.4375,0.011719 0.480427,0 0.843739,-0.1653078 1.087891,-0.4960938 0.244151,-0.330786 0.365234,-0.7671127 0.365234,-1.3105469 0,-0.069963 -0.01636,-0.1179471 -0.01953,-0.1835937 z M 2.987946,10.64093 0.784821,12.844055 c -0.19326,0.19326 -0.297703,0.462644 -0.283203,0.708984 0.004262,0.07241 0.030985,0.135179 0.050781,0.201172 0.045518,-0.149255 0.11653,-0.294264 0.232422,-0.410156 L 2.987946,11.14093 H 3.650055 L 5.191071,12.681946 6.73404,11.14093 h 0.662109 l 1.541016,1.541016 1.541015,-1.541016 h 0.66211 l 1.542969,1.541016 1.210937,-1.210938 c 0.19327,-0.19325 0.462644,-0.29575 0.708984,-0.28125 0.24634,0.01448 0.458795,0.12481 0.615235,0.28125 0.1113,0.1113 0.183758,0.257947 0.230468,0.417969 0.03056,-0.100438 0.05664,-0.203283 0.05078,-0.302735 -0.0145,-0.24635 -0.1248,-0.458784 -0.28125,-0.615234 -0.15644,-0.15644 -0.368895,-0.26677 -0.615235,-0.28125 -0.24634,-0.0145 -0.515714,0.088 -0.708984,0.28125 L 12.683259,12.181946 11.14029,10.64093 H 10.47818 L 8.937165,12.181946 7.396149,10.64093 H 6.73404 L 5.191071,12.181946 3.650055,10.64093 Z"
     id="path824"
     inkscape:connector-curvature="0" />
</svg>
